X:1
T:Clearwater, CMD
T:Clearwater, CMD
T:Franklin D. Barnes, 1898
T:Public Domain Courtesy of the Cyber Hymnal™
C:Franklin D. Barnes, 1898
Z:Public Domain
Z:Courtesy of the Cyber Hymnal™
%%score ( 1 2 ) ( 3 4 )
L:1/8
Q:1/4=98
M:6/8
K:Eb
V:1 treble 
V:2 treble 
V:3 bass 
V:4 bass 
V:1
 [GB] | [GB]2 [GB] ([GB]>[^F=A])[GB] | [EG]2 [DF] [B,E]2 [EG] | [DF]2 [EG] [FA][EG][DF] | %4
 [EG]3- [EG]2 [GB] | [GB]2 [GB] ([GB]>[^F=A])[GB] | [EG]2 [DF] E2 [EG] | [DF]2 [DF] (FG)[E=A] | %8
 [DB]3- [DB]2 [AB] | [Ge]2 [GB] ([Ac]<[GB])[FA] | [EG]2 [FA] [GB]2 [GB] | [Ac]2 [Ac] [Fd]2 [Ge] | %12
 [Fd]3 [Ac]2 [AB] | [Ge]2 [EG] [EG]2 [EG] | [FA]2 [GB] !fermata![Ac]2 [Ac] | %15
 ([GB]>[^F=A])[GB] [EG]2 [D=F] | E3- E2 |] %17
V:2
 x | x6 | x6 | x6 | x6 | x6 | x3 E2 x | x3 E2 x | x6 | x6 | x6 | x6 | x6 | x6 | x6 | x6 | E3- E2 |] %17
V:3
 [E,E] | [E,E]2 [E,E] [E,E]2 [E,B,] | [B,,B,]2 [B,,A,] [E,G,]2 [E,B,] | %3
 [B,,B,]2 [B,,B,] [B,,B,]2 [B,,B,] | [E,B,]3- [E,B,]2 [E,E] | [E,E]2 [E,E] [E,E]2 [E,B,] | %6
 [B,,B,]2 [B,,A,] [E,G,]2 [E,B,] | [F,B,]2 [F,B,] (=A,B,)[F,C] | [B,,B,]3- [B,,B,]2 B, | %9
 [E,B,]2 [E,E] [E,E]2 E, | [E,B,]2 [E,E] [E,E]2 [E,E] | [A,E]2 [A,E] B,2 B, | B,3- B,2 _B, | %13
 [E,B,]2 [E,B,] [E,B,]2 [E,B,] | [A,,E]2 [A,,E] !fermata![A,,E]2 [A,,E] | %15
 [B,,E]2 [B,,E] [B,,B,]2 [B,,A,] | [E,G,]3- [E,G,]2 |] %17
V:4
 x | x6 | x6 | x6 | x6 | x6 | x6 | x3 F,2 x | x5 B, | x6 | x6 | x3 B,2 B, | B,3- _B, x2 | x6 | x6 | %15
 x6 | x5 |] %17

